X:80
T:Fiddle March
C:Andy De Jarlis
M:6/8
L:1/8
Z:abc by Bruce Osborne - bosborne@kos.net
K:C
EF|GEG c2 e|gec G2 G|AFA d2 f|afd A2 G|!
G^FG B2 d|g2 f e2 d|c2 a g2 e|c4:|!
|:EF|G2 E G2 c|e3 c3|d2 ^c def|A3 -Adc|!
B3 b2 a|g2 f e2 d|c2 a g2 e|c4:|!
